public/images/icons/edit_presentation/menu/text_description.svg

<svg width="103mm" height="135mm" fill-rule="evenodd" stroke-linejoin="round" stroke-width="28.2" preserveAspectRatio="xMidYMid" version="1.2" viewBox="5227 7413 10319 13546" xmlns="http://www.w3.org/2000/svg">
 <g class="Group">
  <rect class="BoundingBox" x="5227" y="7413" width="10318" height="13546" fill="none"/>
  <path d="m15544 10985-2778-794-793-2778h-5555c-658 0-1191 533-1191 1191v11163c0 658 533 1191 1191 1191h7935c658 0 1191-533 1191-1191z" fill="#12ac15"/>
  <g class="com.sun.star.drawing.ClosedBezierShape">
   <rect class="BoundingBox" x="10385" y="7413" width="5161" height="13546" fill="none"/>
   <path d="m15545 10985v8782c0 658-533 1191-1191 1191h-3968v-13545h1587l794 2778z" fill="#0051fc"/>
  </g>
  <g class="com.sun.star.drawing.ClosedBezierShape">
   <rect class="BoundingBox" x="11972" y="7413" width="3573" height="3573" fill="none"/>
   <path d="m15544 10985h-2778c-436 0-794-357-794-794v-2778c104 0 207 40 278 119l3175 3175c79 71 119 175 119 278z" fill="#154bbf"/>
  </g>
  <g class="com.sun.star.drawing.ClosedBezierShape" transform="matrix(1,0,0,1.08,0,-1250)">
   <rect class="BoundingBox" x="7607" y="12294" width="5558" height="796" fill="none"/>
   <path d="m12767 13305h-4762c-219 0-397-226-397-505 0-280 178-505 397-505h4762c219 0 397 225 397 505 0 279-178 505-397 505z" fill="#ffa500"/>
  </g>
  <g class="com.sun.star.drawing.ClosedBezierShape" transform="matrix(1,0,0,1.34,0,-5021)">
   <rect class="BoundingBox" x="7607" y="14382" width="5558" height="795" fill="none"/>
   <path d="m12767 15176h-4762c-219 0-397-178-397-397 0-220 178-397 397-397h4762c219 0 397 177 397 397 0 219-178 397-397 397z" fill="#ffa500"/>
  </g>
  <rect class="BoundingBox" x="7607" y="16169" width="5558" height="795" fill="none"/>
  <path d="m12767 17125h-4762c-219 0-397-214-397-478s178-478 397-478h4762c219 0 397 214 397 478s-178 478-397 478z" fill="#ffa500"/>
  <g class="com.sun.star.drawing.ClosedBezierShape" transform="matrix(1,0,0,1.2,0,-3760)">
   <rect class="BoundingBox" x="7608" y="18157" width="3971" height="794" fill="none"/>
   <path d="m11180 18950h-3175c-219 0-397-178-397-397 0-220 178-396 397-396h3175c219 0 397 176 397 396 0 219-178 397-397 397z" fill="#ffa500"/>
  </g>
  <g class="com.sun.star.drawing.ClosedBezierShape">
   <rect class="BoundingBox" x="10386" y="18157" width="1192" height="794" fill="none"/>
   <path d="m10386 18950h794c219 0 397-178 397-397 0-220-178-396-397-396h-794z" fill="#ffa500"/>
  </g>
  <g class="com.sun.star.drawing.ClosedBezierShape">
   <rect class="BoundingBox" x="10385" y="16169" width="2780" height="795" fill="none"/>
   <path d="m10386 16963h2381c219 0 397-178 397-397s-178-397-397-397h-2381z" fill="#ffa500"/>
  </g>
 </g>
</svg>

<?xml version="1.0" encoding="UTF-8"?>
<!DOCTYPE svg PUBLIC "-//W3C//DTD SVG 1.1//EN" "http://www.w3.org/Graphics/SVG/1.1/DTD/svg11.dtd">
<svg version="1.2" width="103.19mm" height="135.46mm" viewBox="5227 7413 10319 13546" preserveAspectRatio="xMidYMid" fill-rule="evenodd" stroke-width="28.222" stroke-linejoin="round" xmlns="http://www.w3.org/2000/svg" xmlns:ooo="http://xml.openoffice.org/svg/export" xmlns:xlink="http://www.w3.org/1999/xlink" xmlns:presentation="http://sun.com/xmlns/staroffice/presentation" xmlns:smil="http://www.w3.org/2001/SMIL20/" xmlns:anim="urn:oasis:names:tc:opendocument:xmlns:animation:1.0" xml:space="preserve">
 <defs class="EmbeddedBulletChars">
  <g id="bullet-char-template-57356" transform="scale(0.00048828125,-0.00048828125)">
   <path d="M 580,1141 L 1163,571 580,0 -4,571 580,1141 Z"/>
  </g>
  <g id="bullet-char-template-57354" transform="scale(0.00048828125,-0.00048828125)">
   <path d="M 8,1128 L 1137,1128 1137,0 8,0 8,1128 Z"/>
  </g>
  <g id="bullet-char-template-10146" transform="scale(0.00048828125,-0.00048828125)">
   <path d="M 174,0 L 602,739 174,1481 1456,739 174,0 Z M 1358,739 L 309,1346 659,739 1358,739 Z"/>
  </g>
  <g id="bullet-char-template-10132" transform="scale(0.00048828125,-0.00048828125)">
   <path d="M 2015,739 L 1276,0 717,0 1260,543 174,543 174,936 1260,936 717,1481 1274,1481 2015,739 Z"/>
  </g>
  <g id="bullet-char-template-10007" transform="scale(0.00048828125,-0.00048828125)">
   <path d="M 0,-2 C -7,14 -16,27 -25,37 L 356,567 C 262,823 215,952 215,954 215,979 228,992 255,992 264,992 276,990 289,987 310,991 331,999 354,1012 L 381,999 492,748 772,1049 836,1024 860,1049 C 881,1039 901,1025 922,1006 886,937 835,863 770,784 769,783 710,716 594,584 L 774,223 C 774,196 753,168 711,139 L 727,119 C 717,90 699,76 672,76 641,76 570,178 457,381 L 164,-76 C 142,-110 111,-127 72,-127 30,-127 9,-110 8,-76 1,-67 -2,-52 -2,-32 -2,-23 -1,-13 0,-2 Z"/>
  </g>
  <g id="bullet-char-template-10004" transform="scale(0.00048828125,-0.00048828125)">
   <path d="M 285,-33 C 182,-33 111,30 74,156 52,228 41,333 41,471 41,549 55,616 82,672 116,743 169,778 240,778 293,778 328,747 346,684 L 369,508 C 377,444 397,411 428,410 L 1163,1116 C 1174,1127 1196,1133 1229,1133 1271,1133 1292,1118 1292,1087 L 1292,965 C 1292,929 1282,901 1262,881 L 442,47 C 390,-6 338,-33 285,-33 Z"/>
  </g>
  <g id="bullet-char-template-9679" transform="scale(0.00048828125,-0.00048828125)">
   <path d="M 813,0 C 632,0 489,54 383,161 276,268 223,411 223,592 223,773 276,916 383,1023 489,1130 632,1184 813,1184 992,1184 1136,1130 1245,1023 1353,916 1407,772 1407,592 1407,412 1353,268 1245,161 1136,54 992,0 813,0 Z"/>
  </g>
  <g id="bullet-char-template-8226" transform="scale(0.00048828125,-0.00048828125)">
   <path d="M 346,457 C 273,457 209,483 155,535 101,586 74,649 74,723 74,796 101,859 155,911 209,963 273,989 346,989 419,989 480,963 531,910 582,859 608,796 608,723 608,648 583,586 532,535 482,483 420,457 346,457 Z"/>
  </g>
  <g id="bullet-char-template-8211" transform="scale(0.00048828125,-0.00048828125)">
   <path d="M -4,459 L 1135,459 1135,606 -4,606 -4,459 Z"/>
  </g>
  <g id="bullet-char-template-61548" transform="scale(0.00048828125,-0.00048828125)">
   <path d="M 173,740 C 173,903 231,1043 346,1159 462,1274 601,1332 765,1332 928,1332 1067,1274 1183,1159 1299,1043 1357,903 1357,740 1357,577 1299,437 1183,322 1067,206 928,148 765,148 601,148 462,206 346,322 231,437 173,577 173,740 Z"/>
  </g>
 </defs>
 <g class="Page">
  <g class="Group">
   <g class="com.sun.star.drawing.ClosedBezierShape">
    <g id="id3">
     <rect class="BoundingBox" stroke="none" fill="none" x="5227" y="7413" width="10318" height="13546"/>
     <path fill="rgb(21,75,191)" stroke="none" d="M 15544,10985 L 12766,10191 11973,7413 6418,7413 C 5760,7413 5227,7946 5227,8604 L 5227,19767 C 5227,20425 5760,20958 6418,20958 L 14353,20958 C 15011,20958 15544,20425 15544,19767 L 15544,10985 Z"/>
    </g>
   </g>
   <g class="com.sun.star.drawing.ClosedBezierShape">
    <g id="id4">
     <rect class="BoundingBox" stroke="none" fill="none" x="10385" y="7413" width="5161" height="13546"/>
     <path fill="rgb(0,81,252)" stroke="none" d="M 15545,10985 L 15545,19767 C 15545,20425 15012,20958 14354,20958 L 10386,20958 10386,7413 11973,7413 12767,10191 15545,10985 Z"/>
    </g>
   </g>
   <g class="com.sun.star.drawing.ClosedBezierShape">
    <g id="id5">
     <rect class="BoundingBox" stroke="none" fill="none" x="11972" y="7413" width="3573" height="3573"/>
     <path fill="rgb(21,75,191)" stroke="none" d="M 15544,10985 L 12766,10985 C 12330,10985 11972,10628 11972,10191 L 11972,7413 C 12076,7413 12179,7453 12250,7532 L 15425,10707 C 15504,10778 15544,10882 15544,10985 Z"/>
    </g>
   </g>
   <g class="com.sun.star.drawing.ClosedBezierShape">
    <g id="id6">
     <rect class="BoundingBox" stroke="none" fill="none" x="7607" y="12294" width="5558" height="796"/>
     <path fill="rgb(255,245,245)" stroke="none" d="M 12767,13089 L 8005,13089 C 7786,13089 7608,12911 7608,12692 7608,12472 7786,12295 8005,12295 L 12767,12295 C 12986,12295 13164,12472 13164,12692 13164,12911 12986,13089 12767,13089 Z"/>
    </g>
   </g>
   <g class="com.sun.star.drawing.ClosedBezierShape">
    <g id="id7">
     <rect class="BoundingBox" stroke="none" fill="none" x="7607" y="14382" width="5558" height="795"/>
     <path fill="rgb(255,245,245)" stroke="none" d="M 12767,15176 L 8005,15176 C 7786,15176 7608,14998 7608,14779 7608,14559 7786,14382 8005,14382 L 12767,14382 C 12986,14382 13164,14559 13164,14779 13164,14998 12986,15176 12767,15176 Z"/>
    </g>
   </g>
   <g class="com.sun.star.drawing.ClosedBezierShape">
    <g id="id8">
     <rect class="BoundingBox" stroke="none" fill="none" x="7607" y="16169" width="5558" height="795"/>
     <path fill="rgb(255,245,245)" stroke="none" d="M 12767,16963 L 8005,16963 C 7786,16963 7608,16785 7608,16566 7608,16347 7786,16169 8005,16169 L 12767,16169 C 12986,16169 13164,16347 13164,16566 13164,16785 12986,16963 12767,16963 Z"/>
    </g>
   </g>
   <g class="com.sun.star.drawing.ClosedBezierShape">
    <g id="id9">
     <rect class="BoundingBox" stroke="none" fill="none" x="7608" y="18157" width="3971" height="794"/>
     <path fill="rgb(255,245,245)" stroke="none" d="M 11180,18950 L 8005,18950 C 7786,18950 7608,18772 7608,18553 7608,18333 7786,18157 8005,18157 L 11180,18157 C 11399,18157 11577,18333 11577,18553 11577,18772 11399,18950 11180,18950 Z"/>
    </g>
   </g>
   <g class="com.sun.star.drawing.ClosedBezierShape">
    <g id="id10">
     <rect class="BoundingBox" stroke="none" fill="none" x="10386" y="18157" width="1192" height="794"/>
     <path fill="rgb(227,231,234)" stroke="none" d="M 10386,18950 L 11180,18950 C 11399,18950 11577,18772 11577,18553 11577,18333 11399,18157 11180,18157 L 10386,18157 10386,18950 Z"/>
    </g>
   </g>
   <g class="com.sun.star.drawing.ClosedBezierShape">
    <g id="id11">
     <rect class="BoundingBox" stroke="none" fill="none" x="10385" y="16169" width="2780" height="795"/>
     <path fill="rgb(227,231,234)" stroke="none" d="M 10386,16963 L 12767,16963 C 12986,16963 13164,16785 13164,16566 13164,16347 12986,16169 12767,16169 L 10386,16169 10386,16963 Z"/>
    </g>
   </g>
   <g class="com.sun.star.drawing.ClosedBezierShape">
    <g id="id12">
     <rect class="BoundingBox" stroke="none" fill="none" x="10385" y="14382" width="2780" height="795"/>
     <path fill="rgb(227,231,234)" stroke="none" d="M 10386,15176 L 12767,15176 C 12986,15176 13164,14998 13164,14779 13164,14559 12986,14382 12767,14382 L 10386,14382 10386,15176 Z"/>
    </g>
   </g>
   <g class="com.sun.star.drawing.ClosedBezierShape">
    <g id="id13">
     <rect class="BoundingBox" stroke="none" fill="none" x="10385" y="12294" width="2780" height="796"/>
     <path fill="rgb(227,231,234)" stroke="none" d="M 10386,13089 L 12767,13089 C 12986,13089 13164,12911 13164,12692 13164,12472 12986,12295 12767,12295 L 10386,12295 10386,13089 Z"/>
    </g>
   </g>
  </g>
 </g>
</svg>
